X:1
T:Paddy on the Handcar
L:1/8
M:4/4
I:linebreak $
K:G
V:1 treble nm="Voice" snm="Voice"
V:1
"Am" E2 A2 A3 B | c2 AB cBAG |"G" EF G2 G3 E- | EDEF G2- G2 |$ E2 A2 A3 B | cBAB cBcd | edef gfed | %7
 B2 A2 A4 ::$ e2 a2 a2 (3age | edef gfed | B [Bg]3 [Bg]4 | BAB^c d4 |$ e2 a2 a2 age | e2 ef gfed | %14
 e3 f gfed |"E7" B2 A2"Am" A4 :| %16
